icons/full-small-1-column-16.svg

<?xml version="1.0" encoding="UTF-8"?><svg id="icons" xmlns="http://www.w3.org/2000/svg" viewBox="0 0 16 16"><defs><style>.cls-1{fill:none;}.cls-1,.cls-2,.cls-3,.cls-4{stroke-width:0px;}.cls-2{opacity:.5;}.cls-3{opacity:.25;}</style></defs><path class="cls-3" d="m10,5v-2h3v2h-3Zm-1,0v-2h-2v2h2Zm-3,0v-2h-3v2h3Z"/><rect class="cls-1" width="16" height="16"/><path class="cls-4" d="m16,16H0V0h16v16Zm-15-1h14V1H1v14ZM14,6H2V2h12v4Zm-11-1h10v-2H3v2Z"/><path class="cls-2" d="m7,5h-1v-2h1v2Zm3-2h-1v2h1v-2Z"/></svg>

<svg xmlns="http://www.w3.org/2000/svg" viewBox="0 0 16 16"><path d="M10 5V3h3v2h-3zM9 5V3H7v2h2zM6 5V3H3v2h3z" opacity=".25" stroke-width="0"/><path stroke-width="0" fill="none" d="M0 0h16v16H0z"/><path d="M16 16H0V0h16v16zM1 15h14V1H1v14zm13-9H2V2h12v4zM3 5h10V3H3v2z" stroke-width="0"/><path d="M7 5H6V3h1v2zm3-2H9v2h1V3z" opacity=".5" stroke-width="0"/></svg>
